X: 5
T: The Edinburgh Rock
R: reel
M: 4/4
L: 1/8
K: Emin
|: GE E2 DEAE | GE E2 BdBA | GE E2 DEGE | BA A2 AGGE|
GE E2 DEAE | GE E2 BdBA | GEGA BAGA | Bdgd e3 d:|
|: geed BAGE | de e2 geae | geed BAGE | DE E2 GEBd|
geed B3A | GEGA BAGA | Bd d2 BAGA | Bdgd e3 d :|


Tune 5450	Setting 21631

